images/card-light.svg

<svg width="235" height="352" viewBox="0 0 235 352" fill="none" xmlns="http://www.w3.org/2000/svg">
<rect x="0.490662" y="0.567917" width="234.062" height="351.092" rx="10" fill="#EEF0F8"/>
<rect x="0.490662" y="0.567917" width="234.062" height="351.092" rx="10" fill="url(#paint0_linear)" fill-opacity="0.1"/>
<g clip-path="url(#clip0)">
<path d="M91.2931 58.0982L87.9731 53.2995L86.9771 54.4578V58.0982H83.9891V41.3027H86.9771V50.7346H87.1431L90.7952 46.4324H94.2812L89.9652 51.3966L94.5302 58.0982H91.2931Z" fill="#09D9B9"/>
<path d="M99.6767 58.2631C98.5147 58.2631 97.5187 58.0148 96.6887 57.5185C95.8586 57.0221 95.1947 56.3601 94.6967 55.4501C94.1987 54.54 94.0327 53.5471 94.0327 52.306C94.0327 51.1478 94.2817 50.0722 94.6967 49.1621C95.1117 48.252 95.7756 47.5073 96.6057 47.011C97.4357 46.5145 98.4317 46.1836 99.5938 46.1836C100.59 46.1836 101.503 46.4317 102.25 46.8455C103.08 47.2591 103.661 47.9211 104.159 48.7484C104.657 49.5758 104.823 50.6513 104.823 51.8924V53.1334H96.9377C97.0207 53.9608 97.3527 54.7054 97.7677 55.2019C98.2657 55.6982 98.8467 55.9465 99.7597 55.9465C100.424 55.9465 101.005 55.781 101.337 55.4501C101.669 55.1191 101.918 54.7881 102.084 54.2917L104.74 55.0364C104.574 55.5327 104.325 56.112 103.91 56.6083C103.495 57.1048 102.997 57.5185 102.25 57.8494C101.503 58.0976 100.673 58.2631 99.6767 58.2631ZM99.5108 48.6657C98.8467 48.6657 98.2657 48.9138 97.8507 49.3276C97.4357 49.7412 97.1037 50.3204 96.9377 51.1478H102.001C102.001 50.4859 101.752 49.9067 101.337 49.4103C100.839 48.9138 100.258 48.6657 99.5108 48.6657Z" fill="#09D9B9"/>
<path d="M108.889 58.594L109.138 58.0147L104.905 46.4316H107.976L110.549 54.1262H110.715L113.288 46.4316H116.359L111.379 59.835C111.213 60.2487 110.964 60.7451 110.632 61.1588C110.3 61.5724 109.885 61.9862 109.387 62.2343C108.889 62.4825 108.225 62.648 107.478 62.648C107.146 62.648 106.897 62.648 106.565 62.5653C106.233 62.4825 106.067 62.3998 105.818 62.317L106.482 60.0004C107.229 60.1659 107.727 60.1659 108.059 59.9177C108.308 59.7522 108.64 59.2558 108.889 58.594Z" fill="#09D9B9"/>
<path d="M126.734 50.1548L123.995 50.5685C123.829 49.9893 123.58 49.5757 123.248 49.2447C122.916 48.9137 122.418 48.7483 121.754 48.7483C120.841 48.7483 120.26 49.0792 119.762 49.7411C119.347 50.4031 119.098 51.2304 119.098 52.3059C119.098 53.3815 119.347 54.2916 119.762 54.9535C120.177 55.6154 120.841 55.9464 121.754 55.9464C122.335 55.9464 122.833 55.7809 123.165 55.45C123.497 55.119 123.829 54.7053 123.912 54.2089L126.651 54.6226C126.402 55.6981 125.821 56.6082 124.991 57.3529C124.078 58.0147 122.999 58.4285 121.671 58.4285C120.509 58.4285 119.596 58.1802 118.766 57.6838C117.936 57.1874 117.355 56.4428 116.857 55.5326C116.442 54.6226 116.193 53.547 116.193 52.3887C116.193 51.2304 116.442 50.1548 116.857 49.2447C117.272 48.3346 117.936 47.6727 118.766 47.1764C119.596 46.6799 120.509 46.4316 121.671 46.4316C122.999 46.4316 124.078 46.7626 124.991 47.5072C125.987 48.0037 126.568 48.9965 126.734 50.1548Z" fill="#09D9B9"/>
<path d="M134.454 58.0975V56.7737H134.288C134.122 57.1047 133.79 57.5184 133.292 57.8493C132.794 58.1802 132.13 58.3457 131.3 58.3457C130.636 58.3457 129.972 58.1802 129.391 57.9321C128.81 57.6838 128.395 57.2701 127.98 56.7737C127.648 56.2774 127.482 55.6154 127.482 54.8708C127.482 53.7125 127.897 52.8852 128.727 52.3059C129.557 51.7268 130.719 51.3958 132.213 51.2304C132.545 51.2304 132.877 51.1477 133.209 51.1477C133.541 51.1477 133.79 51.0649 134.039 50.9822C134.205 50.8994 134.371 50.734 134.371 50.5685V50.4031C134.371 49.9066 134.205 49.493 133.873 49.162C133.541 48.9137 133.126 48.7483 132.628 48.7483C132.047 48.7483 131.632 48.9137 131.217 49.162C130.802 49.4102 130.636 49.7411 130.47 50.1548L127.731 49.7411C127.98 48.6656 128.561 47.8382 129.474 47.259C130.387 46.6799 131.466 46.4316 132.711 46.4316C133.458 46.4316 134.205 46.5971 134.952 46.8454C135.616 47.0936 136.197 47.5072 136.695 48.0864C137.11 48.6656 137.359 49.493 137.359 50.4031V58.263H134.454V58.0975ZM134.288 54.2089V52.6369C134.205 52.7197 134.039 52.8024 133.873 52.8852C133.624 52.9679 133.375 52.9679 133.126 53.0506C132.877 53.1333 132.628 53.1333 132.462 53.1333C131.798 53.216 131.217 53.3815 130.885 53.6298C130.553 53.8779 130.387 54.2916 130.387 54.788C130.387 55.2018 130.553 55.5326 130.802 55.7809C131.134 56.0291 131.466 56.1119 131.964 56.1119C132.628 56.1119 133.126 55.9464 133.624 55.5326C134.122 55.119 134.288 54.7053 134.288 54.2089Z" fill="#09D9B9"/>
<path d="M146.322 46.6804L145.409 49.2453C145.326 49.1625 145.16 49.1625 144.994 49.0798C144.828 48.997 144.579 48.997 144.33 48.997C143.832 48.997 143.417 49.0798 143.085 49.3279C142.753 49.5761 142.421 49.9071 142.255 50.238C142.089 50.6518 141.923 51.0654 141.923 51.4791V58.098H138.935V46.4322H141.84V48.0869H142.006C142.172 47.5078 142.504 47.0113 143.002 46.7632C143.5 46.4322 144.081 46.2667 144.662 46.2667C144.994 46.2667 145.243 46.2667 145.575 46.3494C145.907 46.4322 146.156 46.5149 146.322 46.6804Z" fill="#09D9B9"/>
<path d="M156.532 58.0979H153.627V56.6915H153.461C153.295 57.1051 152.963 57.4361 152.465 57.767C151.967 58.0979 151.386 58.2634 150.556 58.2634C149.643 58.2634 148.896 58.0152 148.232 57.6016C147.568 57.1051 146.987 56.4432 146.572 55.5331C146.157 54.623 145.991 53.5474 145.991 52.2237C145.991 50.8999 146.24 49.8243 146.655 48.9142C147.07 48.0041 147.651 47.3422 148.315 46.9285C149.062 46.5148 149.809 46.2666 150.639 46.2666C151.386 46.2666 152.05 46.4321 152.548 46.7631C153.046 47.094 153.378 47.425 153.544 47.8386H153.627V42.5435H156.532V58.0979ZM148.73 52.2237C148.73 53.2993 148.979 54.2094 149.394 54.8712C149.809 55.5331 150.473 55.8641 151.386 55.8641C151.967 55.8641 152.465 55.6986 152.88 55.3676C153.212 55.0367 153.544 54.623 153.71 54.0439C153.876 53.4647 153.959 52.8855 153.959 52.2237C153.959 51.2308 153.793 50.3207 153.378 49.6588C152.963 48.9969 152.382 48.666 151.469 48.666C150.556 48.666 149.975 48.9969 149.477 49.6588C148.979 50.3207 148.73 51.148 148.73 52.2237Z" fill="#09D9B9"/>
<path d="M85.4003 44.0327C81.5822 44.0327 78.5112 40.8887 78.5112 37.0828C78.5112 33.277 81.5822 30.2157 85.4003 30.2157C89.2182 30.2157 92.2893 33.277 92.2893 37.0828C92.3723 40.8887 89.2182 44.0327 85.4003 44.0327ZM85.4003 32.946C83.0762 32.946 81.2502 34.849 81.2502 37.0828C81.2502 39.3995 83.1592 41.2197 85.4003 41.2197C87.7243 41.2197 89.5503 39.3167 89.5503 37.0828C89.6333 34.849 87.7243 32.946 85.4003 32.946Z" fill="#09D9B9"/>
</g>
<g clip-path="url(#clip1)">
<path opacity="0.3" d="M134.7 265.565C134.37 265.235 133.923 265.051 133.457 265.052C132.991 265.052 132.544 265.238 132.215 265.568C131.885 265.898 131.701 266.346 131.702 266.812C131.702 267.278 131.888 267.725 132.218 268.054C132.952 268.787 133.534 269.658 133.931 270.617C134.328 271.576 134.533 272.603 134.533 273.641C134.533 274.678 134.328 275.706 133.931 276.664C133.534 277.623 132.952 278.494 132.218 279.227C132.055 279.39 131.925 279.584 131.837 279.797C131.748 280.01 131.702 280.239 131.702 280.469C131.702 280.7 131.747 280.929 131.835 281.142C131.923 281.355 132.052 281.549 132.215 281.712C132.378 281.876 132.572 282.005 132.785 282.094C132.998 282.182 133.227 282.228 133.457 282.228C133.688 282.228 133.917 282.183 134.13 282.095C134.343 282.007 134.537 281.878 134.7 281.715C135.76 280.655 136.601 279.397 137.174 278.013C137.748 276.628 138.043 275.144 138.043 273.646C138.043 272.147 137.748 270.663 137.174 269.279C136.601 267.894 135.76 266.637 134.7 265.577L134.7 265.565Z" fill="#0E1C36"/>
<path opacity="0.3" d="M137.497 264.336C139.962 266.804 141.347 270.151 141.347 273.64C141.347 277.129 139.962 280.475 137.497 282.944C137.329 283.106 137.195 283.299 137.103 283.514C137.011 283.728 136.963 283.958 136.961 284.191C136.959 284.424 137.003 284.655 137.092 284.871C137.18 285.087 137.31 285.283 137.475 285.448C137.64 285.613 137.836 285.743 138.052 285.831C138.267 285.919 138.498 285.964 138.732 285.962C138.965 285.96 139.195 285.911 139.409 285.819C139.623 285.727 139.817 285.594 139.979 285.426C143.106 282.298 144.863 278.057 144.863 273.634C144.863 269.211 143.106 264.969 139.979 261.841C139.648 261.512 139.2 261.328 138.734 261.329C138.502 261.33 138.274 261.376 138.061 261.465C137.847 261.554 137.654 261.684 137.491 261.847C137.328 262.011 137.198 262.206 137.111 262.419C137.023 262.633 136.978 262.862 136.978 263.093C136.979 263.56 137.166 264.007 137.497 264.336V264.336Z" fill="#0E1C36"/>
</g>
<rect x="71.4893" y="247.893" width="46.8123" height="49.2129" rx="5" fill="#EEC458"/>
<rect x="71.4893" y="247.893" width="46.8123" height="49.2129" rx="5" fill="url(#paint1_linear)" fill-opacity="0.6"/>
<mask id="mask0" mask-type="alpha" maskUnits="userSpaceOnUse" x="71" y="247" width="48" height="51">
<rect x="71.4893" y="247.893" width="46.8123" height="49.2129" rx="5" fill="#EEC458"/>
<rect x="71.4893" y="247.893" width="46.8123" height="49.2129" rx="5" fill="url(#paint2_linear)" fill-opacity="0.6"/>
</mask>
<g mask="url(#mask0)">
<rect x="50.8634" y="262.376" width="38.1311" height="49.054" stroke="#C4A145" stroke-width="4"/>
<rect x="106.258" y="239.75" width="38.1311" height="62.3175" stroke="#C4A145" stroke-width="4"/>
<rect x="105.818" y="261.937" width="13.2635" height="3.12082" fill="#C4A145"/>
<rect x="105.818" y="261.937" width="13.2635" height="3.12082" fill="#C4A145"/>
<rect x="105.818" y="261.937" width="13.2635" height="3.12082" fill="#C4A145"/>
<rect x="105.818" y="261.937" width="13.2635" height="3.12082" fill="#C4A145"/>
<rect x="105.818" y="279.101" width="13.2635" height="3.12082" fill="#C4A145"/>
<rect x="105.818" y="279.101" width="13.2635" height="3.12082" fill="#C4A145"/>
<rect x="105.818" y="279.101" width="13.2635" height="3.12082" fill="#C4A145"/>
<rect x="105.818" y="279.101" width="13.2635" height="3.12082" fill="#C4A145"/>
<rect x="66.8081" y="272.079" width="22.6259" height="3.12082" fill="#C4A145"/>
<rect x="66.8081" y="272.079" width="22.6259" height="3.12082" fill="#C4A145"/>
<rect x="66.8081" y="272.079" width="22.6259" height="3.12082" fill="#C4A145"/>
<rect x="66.8081" y="272.079" width="22.6259" height="3.12082" fill="#C4A145"/>
<rect x="66.8081" y="284.563" width="22.6259" height="3.12082" fill="#C4A145"/>
<rect x="66.8081" y="284.563" width="22.6259" height="3.12082" fill="#C4A145"/>
<rect x="66.8081" y="284.563" width="22.6259" height="3.12082" fill="#C4A145"/>
<rect x="66.8081" y="284.563" width="22.6259" height="3.12082" fill="#C4A145"/>
</g>
<defs>
<linearGradient id="paint0_linear" x1="138.018" y1="101.748" x2="-36.3046" y2="284.058" gradientUnits="userSpaceOnUse">
<stop stop-color="white"/>
<stop offset="1" stop-color="white" stop-opacity="0"/>
</linearGradient>
<linearGradient id="paint1_linear" x1="141.188" y1="231.489" x2="75.6492" y2="262.554" gradientUnits="userSpaceOnUse">
<stop stop-color="white"/>
<stop offset="1" stop-color="white" stop-opacity="0"/>
</linearGradient>
<linearGradient id="paint2_linear" x1="141.188" y1="231.489" x2="75.6492" y2="262.554" gradientUnits="userSpaceOnUse">
<stop stop-color="white"/>
<stop offset="1" stop-color="white" stop-opacity="0"/>
</linearGradient>
<clipPath id="clip0">
<rect width="78.0205" height="32.7984" fill="white" transform="translate(78.5112 30.2157)"/>
</clipPath>
<clipPath id="clip1">
<rect width="42.1311" height="13.3045" fill="white" transform="translate(144.87 252.574) rotate(90)"/>
</clipPath>
</defs>
</svg>

<svg width="235" height="352" fill="none" xmlns="http://www.w3.org/2000/svg"><rect x=".491" y=".568" width="234.062" height="351.092" rx="10" fill="#EEF0F8"/><rect x=".491" y=".568" width="234.062" height="351.092" rx="10" fill="url(#paint0_linear)" fill-opacity=".1"/><g clip-path="url(#clip0)" fill="#09D9B9"><path d="M91.293 58.098l-3.32-4.798-.996 1.158v3.64H83.99V41.303h2.988v9.432h.166l3.652-4.303h3.486l-4.316 4.965 4.565 6.701h-3.237z"/><path d="M99.677 58.263c-1.162 0-2.158-.248-2.988-.744a5.322 5.322 0 0 1-1.992-2.069c-.498-.91-.664-1.903-.664-3.144 0-1.158.249-2.234.664-3.144a4.821 4.821 0 0 1 1.909-2.151 5.746 5.746 0 0 1 2.988-.827c.996 0 1.909.248 2.656.662.83.413 1.411 1.075 1.909 1.902.498.828.664 1.903.664 3.144v1.241h-7.885c.083.828.415 1.572.83 2.069.498.496 1.079.745 1.992.745.664 0 1.245-.166 1.577-.497.332-.33.581-.662.747-1.158l2.656.744c-.166.497-.415 1.076-.83 1.572-.415.497-.913.91-1.66 1.241a7.981 7.981 0 0 1-2.573.414zm-.166-9.597c-.664 0-1.245.248-1.66.662-.415.413-.747.992-.913 1.82H102c0-.662-.249-1.241-.664-1.738-.498-.496-1.079-.744-1.826-.744zm9.378 9.928l.249-.58-4.233-11.582h3.071l2.573 7.694h.166l2.573-7.694h3.071l-4.98 13.403c-.166.414-.415.91-.747 1.324-.332.413-.747.827-1.245 1.075-.498.248-1.162.414-1.909.414-.332 0-.581 0-.913-.083-.332-.082-.498-.165-.747-.248l.664-2.317c.747.166 1.245.166 1.577-.082.249-.166.581-.662.83-1.324zm17.845-8.439l-2.739.413c-.166-.579-.415-.992-.747-1.323-.332-.331-.83-.497-1.494-.497-.913 0-1.494.331-1.992.993-.415.662-.664 1.49-.664 2.565 0 1.076.249 1.986.664 2.648.415.661 1.079.992 1.992.992.581 0 1.079-.165 1.411-.496.332-.331.664-.745.747-1.241l2.739.414c-.249 1.075-.83 1.985-1.66 2.73a5.493 5.493 0 0 1-3.32 1.075c-1.162 0-2.075-.248-2.905-.744-.83-.497-1.411-1.241-1.909-2.151a7.601 7.601 0 0 1-.664-3.144 7.6 7.6 0 0 1 .664-3.144c.415-.91 1.079-1.572 1.909-2.069.83-.496 1.743-.744 2.905-.744 1.328 0 2.407.33 3.32 1.075.996.497 1.577 1.49 1.743 2.648zm7.72 7.942v-1.323h-.166c-.166.33-.498.744-.996 1.075-.498.331-1.162.497-1.992.497a4.939 4.939 0 0 1-1.909-.414c-.581-.248-.996-.662-1.411-1.158-.332-.497-.498-1.159-.498-1.903 0-1.159.415-1.986 1.245-2.565.83-.58 1.992-.91 3.486-1.076.332 0 .664-.082.996-.082.332 0 .581-.083.83-.166.166-.083.332-.248.332-.413v-.166c0-.496-.166-.91-.498-1.241a2.042 2.042 0 0 0-1.245-.414c-.581 0-.996.166-1.411.414-.415.248-.581.58-.747.993l-2.739-.414c.249-1.075.83-1.903 1.743-2.482.913-.58 1.992-.827 3.237-.827.747 0 1.494.165 2.241.413a4.237 4.237 0 0 1 1.743 1.241c.415.58.664 1.407.664 2.317v7.86h-2.905v-.166zm-.166-3.888v-1.572c-.083.083-.249.165-.415.248-.249.083-.498.083-.747.166a2.086 2.086 0 0 1-.664.082c-.664.083-1.245.248-1.577.497-.332.248-.498.662-.498 1.158 0 .414.166.745.415.993.332.248.664.33 1.162.33.664 0 1.162-.165 1.66-.578.498-.414.664-.828.664-1.324zm12.034-7.529l-.913 2.565c-.083-.082-.249-.082-.415-.165-.166-.083-.415-.083-.664-.083-.498 0-.913.083-1.245.33-.332.25-.664.58-.83.911-.166.414-.332.827-.332 1.241v6.619h-2.988V46.432h2.905v1.655h.166c.166-.58.498-1.076.996-1.324a3 3 0 0 1 1.66-.496c.332 0 .581 0 .913.082.332.083.581.166.747.331zm10.21 11.418h-2.905V56.69h-.166c-.166.414-.498.745-.996 1.076-.498.33-1.079.496-1.909.496-.913 0-1.66-.248-2.324-.661a5.25 5.25 0 0 1-1.66-2.069c-.415-.91-.581-1.986-.581-3.31 0-1.323.249-2.399.664-3.309.415-.91.996-1.572 1.66-1.986.747-.413 1.494-.661 2.324-.661.747 0 1.411.165 1.909.496.498.331.83.662.996 1.076h.083v-5.295h2.905v15.554zm-7.802-5.874c0 1.075.249 1.985.664 2.647.415.662 1.079.993 1.992.993.581 0 1.079-.165 1.494-.496.332-.331.664-.745.83-1.324.166-.58.249-1.158.249-1.82 0-.993-.166-1.903-.581-2.565-.415-.662-.996-.993-1.909-.993s-1.494.33-1.992.993c-.498.662-.747 1.489-.747 2.565zM85.4 44.033c-3.818 0-6.889-3.144-6.889-6.95a6.861 6.861 0 0 1 6.89-6.867 6.861 6.861 0 0 1 6.888 6.867c.083 3.806-3.07 6.95-6.889 6.95zm0-11.087a4.155 4.155 0 0 0-4.15 4.137c0 2.317 1.91 4.137 4.15 4.137a4.155 4.155 0 0 0 4.15-4.137c.083-2.234-1.826-4.137-4.15-4.137z"/></g><g clip-path="url(#clip1)" fill="#0E1C36"><path opacity=".3" d="M134.7 265.565a1.754 1.754 0 0 0-2.998 1.247c0 .466.186.913.516 1.242a7.905 7.905 0 0 1 1.713 8.61 7.883 7.883 0 0 1-1.713 2.563 1.755 1.755 0 0 0-.516 1.242 1.763 1.763 0 0 0 .513 1.243 1.758 1.758 0 0 0 2.485.003 11.408 11.408 0 0 0 0-16.138v-.012z"/><path opacity=".3" d="M137.497 264.336a13.167 13.167 0 0 1 0 18.608 1.745 1.745 0 0 0-.536 1.247 1.748 1.748 0 0 0 1.771 1.771 1.752 1.752 0 0 0 1.247-.536 16.679 16.679 0 0 0 0-23.585 1.761 1.761 0 0 0-3.001 1.252c.001.467.188.914.519 1.243z"/></g><rect x="71.489" y="247.893" width="46.812" height="49.213" rx="5" fill="#EEC458"/><rect x="71.489" y="247.893" width="46.812" height="49.213" rx="5" fill="url(#paint1_linear)" fill-opacity=".6"/><mask id="a" maskUnits="userSpaceOnUse" x="71" y="247" width="48" height="51"><rect x="71.489" y="247.893" width="46.812" height="49.213" rx="5" fill="#EEC458"/><rect x="71.489" y="247.893" width="46.812" height="49.213" rx="5" fill="url(#paint2_linear)" fill-opacity=".6"/></mask><g mask="url(#a)"><path stroke="#C4A145" stroke-width="4" d="M50.863 262.376h38.131v49.054H50.863zm55.395-22.626h38.131v62.318h-38.131z"/><path fill="#C4A145" d="M105.818 261.937h13.264v3.121h-13.264z"/><path fill="#C4A145" d="M105.818 261.937h13.264v3.121h-13.264z"/><path fill="#C4A145" d="M105.818 261.937h13.264v3.121h-13.264z"/><path fill="#C4A145" d="M105.818 261.937h13.264v3.121h-13.264zm0 17.164h13.264v3.121h-13.264z"/><path fill="#C4A145" d="M105.818 279.101h13.264v3.121h-13.264z"/><path fill="#C4A145" d="M105.818 279.101h13.264v3.121h-13.264z"/><path fill="#C4A145" d="M105.818 279.101h13.264v3.121h-13.264zm-39.01-7.022h22.626v3.121H66.808z"/><path fill="#C4A145" d="M66.808 272.079h22.626v3.121H66.808z"/><path fill="#C4A145" d="M66.808 272.079h22.626v3.121H66.808z"/><path fill="#C4A145" d="M66.808 272.079h22.626v3.121H66.808zm0 12.484h22.626v3.121H66.808z"/><path fill="#C4A145" d="M66.808 284.563h22.626v3.121H66.808z"/><path fill="#C4A145" d="M66.808 284.563h22.626v3.121H66.808z"/><path fill="#C4A145" d="M66.808 284.563h22.626v3.121H66.808z"/></g><defs><linearGradient id="paint0_linear" x1="138.018" y1="101.748" x2="-36.305" y2="284.058" gradientUnits="userSpaceOnUse"><stop stop-color="#fff"/><stop offset="1" stop-color="#fff" stop-opacity="0"/></linearGradient><linearGradient id="paint1_linear" x1="141.188" y1="231.489" x2="75.649" y2="262.554" gradientUnits="userSpaceOnUse"><stop stop-color="#fff"/><stop offset="1" stop-color="#fff" stop-opacity="0"/></linearGradient><linearGradient id="paint2_linear" x1="141.188" y1="231.489" x2="75.649" y2="262.554" gradientUnits="userSpaceOnUse"><stop stop-color="#fff"/><stop offset="1" stop-color="#fff" stop-opacity="0"/></linearGradient><clipPath id="clip0"><path fill="#fff" transform="translate(78.511 30.216)" d="M0 0h78.02v32.798H0z"/></clipPath><clipPath id="clip1"><path fill="#fff" transform="rotate(90 -53.852 198.722)" d="M0 0h42.131v13.305H0z"/></clipPath></defs></svg>
